img/icon6.svg

<svg width="101" height="63" viewBox="0 0 101 63" fill="none" xmlns="http://www.w3.org/2000/svg">
<rect width="101" height="63" fill="white"/>
<path d="M9.42114 9.24801H22.3811V26H19.2131V12.056H12.5891V26H9.42114V9.24801ZM31.0956 26.288C30.1996 26.288 29.3916 26.136 28.6716 25.832C27.9676 25.528 27.3596 25.088 26.8476 24.512C26.3516 23.936 25.9676 23.248 25.6956 22.448C25.4236 21.632 25.2876 20.72 25.2876 19.712C25.2876 18.704 25.4236 17.8 25.6956 17C25.9676 16.2 26.3516 15.52 26.8476 14.96C27.3596 14.384 27.9676 13.944 28.6716 13.64C29.3916 13.336 30.1996 13.184 31.0956 13.184C31.9916 13.184 32.7996 13.336 33.5196 13.64C34.2396 13.944 34.8476 14.384 35.3436 14.96C35.8556 15.52 36.2476 16.2 36.5196 17C36.7916 17.8 36.9276 18.704 36.9276 19.712C36.9276 20.72 36.7916 21.632 36.5196 22.448C36.2476 23.248 35.8556 23.936 35.3436 24.512C34.8476 25.088 34.2396 25.528 33.5196 25.832C32.7996 26.136 31.9916 26.288 31.0956 26.288ZM31.0956 23.816C31.9116 23.816 32.5516 23.568 33.0156 23.072C33.4796 22.576 33.7116 21.848 33.7116 20.888V18.56C33.7116 17.616 33.4796 16.896 33.0156 16.4C32.5516 15.904 31.9116 15.656 31.0956 15.656C30.2956 15.656 29.6636 15.904 29.1996 16.4C28.7356 16.896 28.5036 17.616 28.5036 18.56V20.888C28.5036 21.848 28.7356 22.576 29.1996 23.072C29.6636 23.568 30.2956 23.816 31.0956 23.816ZM37.9973 23.552H39.5813C40.0453 22.88 40.3893 22.032 40.6133 21.008C40.8373 19.984 40.9492 18.664 40.9492 17.048V13.472H50.5733V23.552H52.7093V29.36H49.9253V26H40.7812V29.36H37.9973V23.552ZM47.5013 23.552V15.92H43.8773V17.192C43.8773 18.904 43.7733 20.264 43.5653 21.272C43.3573 22.264 43.1013 23.024 42.7973 23.552H47.5013ZM59.8791 26.288C58.9671 26.288 58.1511 26.136 57.4311 25.832C56.7271 25.528 56.1191 25.056 55.6071 24.416C55.1111 23.76 54.7271 22.928 54.4551 21.92C54.1991 20.912 54.0711 19.712 54.0711 18.32C54.0711 16.672 54.1991 15.248 54.4551 14.048C54.7111 12.848 55.1111 11.848 55.6551 11.048C56.1991 10.232 56.8951 9.60801 57.7431 9.17601C58.5911 8.74401 59.5991 8.47201 60.7671 8.36001L64.7991 7.97601V10.952L60.6951 11.336C60.0711 11.4 59.5511 11.528 59.1351 11.72C58.7191 11.896 58.3751 12.168 58.1031 12.536C57.8471 12.904 57.6551 13.392 57.5271 14C57.4151 14.592 57.3351 15.328 57.2871 16.208H57.3831C57.6871 15.376 58.1031 14.752 58.6311 14.336C59.1751 13.92 59.9031 13.712 60.8151 13.712C61.5031 13.712 62.1431 13.848 62.7351 14.12C63.3431 14.392 63.8631 14.792 64.2951 15.32C64.7271 15.832 65.0631 16.464 65.3031 17.216C65.5591 17.968 65.6871 18.824 65.6871 19.784C65.6871 20.776 65.5511 21.672 65.2791 22.472C65.0231 23.272 64.6391 23.96 64.1271 24.536C63.6311 25.096 63.0231 25.528 62.3031 25.832C61.5831 26.136 60.7751 26.288 59.8791 26.288ZM59.9271 23.816C60.7111 23.816 61.3351 23.568 61.7991 23.072C62.2631 22.576 62.4951 21.864 62.4951 20.936V19.136C62.4951 18.176 62.2551 17.448 61.7751 16.952C61.3111 16.456 60.6711 16.208 59.8551 16.208C59.0231 16.208 58.3831 16.448 57.9351 16.928C57.5031 17.392 57.2871 18.04 57.2871 18.872V20.864C57.2871 21.824 57.5191 22.56 57.9831 23.072C58.4631 23.568 59.1111 23.816 59.9271 23.816ZM73.3768 26.288C72.4808 26.288 71.6728 26.136 70.9528 25.832C70.2488 25.528 69.6408 25.088 69.1288 24.512C68.6328 23.936 68.2488 23.248 67.9768 22.448C67.7048 21.632 67.5688 20.72 67.5688 19.712C67.5688 18.704 67.7048 17.8 67.9768 17C68.2488 16.2 68.6328 15.52 69.1288 14.96C69.6408 14.384 70.2488 13.944 70.9528 13.64C71.6728 13.336 72.4808 13.184 73.3768 13.184C74.2728 13.184 75.0808 13.336 75.8008 13.64C76.5208 13.944 77.1288 14.384 77.6248 14.96C78.1368 15.52 78.5288 16.2 78.8008 17C79.0728 17.8 79.2088 18.704 79.2088 19.712C79.2088 20.72 79.0728 21.632 78.8008 22.448C78.5288 23.248 78.1368 23.936 77.6248 24.512C77.1288 25.088 76.5208 25.528 75.8008 25.832C75.0808 26.136 74.2728 26.288 73.3768 26.288ZM73.3768 23.816C74.1928 23.816 74.8328 23.568 75.2968 23.072C75.7608 22.576 75.9928 21.848 75.9928 20.888V18.56C75.9928 17.616 75.7608 16.896 75.2968 16.4C74.8328 15.904 74.1928 15.656 73.3768 15.656C72.5768 15.656 71.9448 15.904 71.4808 16.4C71.0168 16.896 70.7848 17.616 70.7848 18.56V20.888C70.7848 21.848 71.0168 22.576 71.4808 23.072C71.9448 23.568 72.5768 23.816 73.3768 23.816ZM81.9323 13.472H85.0043V15.536H85.1003C85.3243 14.816 85.7483 14.248 86.3723 13.832C86.9963 13.4 87.7243 13.184 88.5563 13.184C90.1563 13.184 91.3723 13.752 92.2043 14.888C93.0523 16.008 93.4763 17.616 93.4763 19.712C93.4763 21.824 93.0523 23.448 92.2043 24.584C91.3723 25.72 90.1563 26.288 88.5563 26.288C87.7243 26.288 86.9963 26.072 86.3723 25.64C85.7643 25.208 85.3403 24.632 85.1003 23.912H85.0043V30.8H81.9323V13.472ZM87.5723 23.744C88.3723 23.744 89.0203 23.48 89.5163 22.952C90.0123 22.424 90.2603 21.712 90.2603 20.816V18.656C90.2603 17.76 90.0123 17.048 89.5163 16.52C89.0203 15.976 88.3723 15.704 87.5723 15.704C86.8363 15.704 86.2203 15.888 85.7243 16.256C85.2443 16.624 85.0043 17.112 85.0043 17.72V21.704C85.0043 22.36 85.2443 22.864 85.7243 23.216C86.2203 23.568 86.8363 23.744 87.5723 23.744ZM43.2613 51.288C40.7653 51.288 38.7413 50.416 37.1893 48.672L39.3253 46.608C39.8373 47.2 40.4133 47.664 41.0533 48C41.6933 48.32 42.4293 48.48 43.2613 48.48C44.3013 48.48 45.0933 48.288 45.6373 47.904C46.1813 47.52 46.4533 46.96 46.4533 46.224V46.008C46.4533 45.288 46.2293 44.76 45.7813 44.424C45.3493 44.072 44.6613 43.896 43.7173 43.896H40.9093V41.112H43.5733C45.2853 41.112 46.1413 40.392 46.1413 38.952V38.76C46.1413 38.12 45.9093 37.632 45.4453 37.296C44.9973 36.944 44.3093 36.768 43.3813 36.768C42.6133 36.768 41.9093 36.912 41.2693 37.2C40.6453 37.488 40.1253 37.888 39.7093 38.4L37.6933 36.48C38.3653 35.68 39.1733 35.064 40.1173 34.632C41.0773 34.184 42.1653 33.96 43.3813 33.96C45.3173 33.96 46.8213 34.376 47.8933 35.208C48.9653 36.024 49.5013 37.136 49.5013 38.544C49.5013 39.68 49.1733 40.552 48.5173 41.16C47.8773 41.752 47.0693 42.104 46.0933 42.216V42.36C46.5733 42.392 47.0373 42.496 47.4853 42.672C47.9333 42.832 48.3253 43.072 48.6613 43.392C49.0133 43.696 49.2933 44.08 49.5013 44.544C49.7093 44.992 49.8133 45.52 49.8133 46.128C49.8133 46.896 49.6613 47.6 49.3573 48.24C49.0533 48.864 48.6213 49.408 48.0613 49.872C47.5013 50.32 46.8133 50.672 45.9973 50.928C45.1813 51.168 44.2693 51.288 43.2613 51.288ZM53.6964 48.192H56.4804L56.9604 46.968L51.0084 34.248H54.3684L57.1044 40.176L58.4484 43.368H58.5204L59.6964 40.128L62.0484 34.248H65.1924L59.2884 48.72C59.1124 49.152 58.9204 49.512 58.7124 49.8C58.5044 50.088 58.2644 50.328 57.9924 50.52C57.7204 50.696 57.4004 50.824 57.0324 50.904C56.6804 50.968 56.2644 51 55.7844 51H53.6964V48.192Z" fill="#000105"/>
<path d="M100 1H1V62H100V1Z" stroke="black" stroke-width="2"/>
</svg>

<svg width="101" height="63" fill="none" xmlns="http://www.w3.org/2000/svg"><path fill="#fff" d="M0 0h101v63H0z"/><path d="M9.421 9.248h12.96V26h-3.168V12.056H12.59V26H9.421V9.248zm21.675 17.04c-.896 0-1.704-.152-2.424-.456a5.138 5.138 0 01-1.824-1.32c-.496-.576-.88-1.264-1.152-2.064-.272-.816-.408-1.728-.408-2.736 0-1.008.136-1.912.408-2.712.272-.8.656-1.48 1.152-2.04a5.138 5.138 0 011.824-1.32c.72-.304 1.528-.456 2.424-.456.896 0 1.704.152 2.424.456a4.87 4.87 0 011.824 1.32c.512.56.904 1.24 1.176 2.04.272.8.408 1.704.408 2.712 0 1.008-.136 1.92-.408 2.736a5.945 5.945 0 01-1.176 2.064 4.87 4.87 0 01-1.824 1.32c-.72.304-1.528.456-2.424.456zm0-2.472c.816 0 1.456-.248 1.92-.744.464-.496.696-1.224.696-2.184V18.56c0-.944-.232-1.664-.696-2.16-.464-.496-1.104-.744-1.92-.744-.8 0-1.432.248-1.896.744-.464.496-.696 1.216-.696 2.16v2.328c0 .96.232 1.688.696 2.184.464.496 1.096.744 1.896.744zm6.901-.264h1.584c.464-.672.808-1.52 1.032-2.544.224-1.024.336-2.344.336-3.96v-3.576h9.624v10.08h2.136v5.808h-2.784V26h-9.144v3.36h-2.784v-5.808zm9.504 0V15.92h-3.624v1.272c0 1.712-.104 3.072-.312 4.08-.208.992-.464 1.752-.768 2.28h4.704zm12.378 2.736c-.912 0-1.728-.152-2.448-.456a4.71 4.71 0 01-1.824-1.416c-.496-.656-.88-1.488-1.152-2.496-.256-1.008-.384-2.208-.384-3.6 0-1.648.128-3.072.384-4.272.256-1.2.656-2.2 1.2-3a5.454 5.454 0 012.088-1.872c.848-.432 1.856-.704 3.024-.816l4.032-.384v2.976l-4.104.384c-.624.064-1.144.192-1.56.384a2.45 2.45 0 00-1.032.816c-.256.368-.448.856-.576 1.464-.112.592-.192 1.328-.24 2.208h.096c.304-.832.72-1.456 1.248-1.872.544-.416 1.272-.624 2.184-.624.688 0 1.328.136 1.92.408a4.22 4.22 0 011.56 1.2c.432.512.768 1.144 1.008 1.896.256.752.384 1.608.384 2.568 0 .992-.136 1.888-.408 2.688-.256.8-.64 1.488-1.152 2.064a4.994 4.994 0 01-1.824 1.296c-.72.304-1.528.456-2.424.456zm.048-2.472c.784 0 1.408-.248 1.872-.744.464-.496.696-1.208.696-2.136v-1.8c0-.96-.24-1.688-.72-2.184-.464-.496-1.104-.744-1.92-.744-.832 0-1.472.24-1.92.72-.432.464-.648 1.112-.648 1.944v1.992c0 .96.232 1.696.696 2.208.48.496 1.128.744 1.944.744zm13.45 2.472c-.896 0-1.704-.152-2.424-.456a5.138 5.138 0 01-1.824-1.32c-.496-.576-.88-1.264-1.152-2.064-.272-.816-.408-1.728-.408-2.736 0-1.008.136-1.912.408-2.712.272-.8.656-1.48 1.152-2.04a5.138 5.138 0 011.824-1.32c.72-.304 1.528-.456 2.424-.456.896 0 1.704.152 2.424.456a4.87 4.87 0 011.824 1.32c.512.56.904 1.24 1.176 2.04.272.8.408 1.704.408 2.712 0 1.008-.136 1.92-.408 2.736a5.945 5.945 0 01-1.176 2.064 4.87 4.87 0 01-1.824 1.32c-.72.304-1.528.456-2.424.456zm0-2.472c.816 0 1.456-.248 1.92-.744.464-.496.696-1.224.696-2.184V18.56c0-.944-.232-1.664-.696-2.16-.464-.496-1.104-.744-1.92-.744-.8 0-1.432.248-1.896.744-.464.496-.696 1.216-.696 2.16v2.328c0 .96.232 1.688.696 2.184.464.496 1.096.744 1.896.744zm8.555-10.344h3.072v2.064h.096a3.094 3.094 0 011.272-1.704c.624-.432 1.352-.648 2.184-.648 1.6 0 2.816.568 3.648 1.704.848 1.12 1.272 2.728 1.272 4.824 0 2.112-.424 3.736-1.272 4.872-.832 1.136-2.048 1.704-3.648 1.704-.832 0-1.56-.216-2.184-.648a3.373 3.373 0 01-1.272-1.728h-.096V30.8h-3.072V13.472zm5.64 10.272c.8 0 1.448-.264 1.944-.792s.744-1.24.744-2.136v-2.16c0-.896-.248-1.608-.744-2.136-.496-.544-1.144-.816-1.944-.816-.736 0-1.352.184-1.848.552-.48.368-.72.856-.72 1.464v3.984c0 .656.24 1.16.72 1.512.496.352 1.112.528 1.848.528zm-44.31 27.544c-2.497 0-4.52-.872-6.073-2.616l2.136-2.064A5.919 5.919 0 0041.053 48c.64.32 1.376.48 2.208.48 1.04 0 1.832-.192 2.376-.576.544-.384.816-.944.816-1.68v-.216c0-.72-.224-1.248-.672-1.584-.432-.352-1.12-.528-2.064-.528H40.91v-2.784h2.664c1.712 0 2.568-.72 2.568-2.16v-.192c0-.64-.232-1.128-.696-1.464-.448-.352-1.136-.528-2.064-.528-.768 0-1.472.144-2.112.432a4.299 4.299 0 00-1.56 1.2l-2.016-1.92a6.854 6.854 0 012.424-1.848c.96-.448 2.048-.672 3.264-.672 1.936 0 3.44.416 4.512 1.248 1.072.816 1.608 1.928 1.608 3.336 0 1.136-.328 2.008-.984 2.616-.64.592-1.448.944-2.424 1.056v.144c.48.032.944.136 1.392.312.448.16.84.4 1.176.72.352.304.632.688.84 1.152.208.448.312.976.312 1.584a4.86 4.86 0 01-.456 2.112 4.882 4.882 0 01-1.296 1.632c-.56.448-1.248.8-2.064 1.056-.816.24-1.728.36-2.736.36zm10.434-3.096h2.784l.48-1.224-5.952-12.72h3.36l2.736 5.928 1.344 3.192h.072l1.176-3.24 2.352-5.88h3.144L59.288 48.72a5.196 5.196 0 01-.576 1.08 3.075 3.075 0 01-.72.72 2.875 2.875 0 01-.96.384 7.068 7.068 0 01-1.248.096h-2.088v-2.808z" fill="#000105"/><path d="M100 1H1v61h99V1z" stroke="#000" stroke-width="2"/></svg>
